X:1
T:There Is Work for Me To Do
T:There Is Work for Me To Do
T:B. E. Jackson
T:Homer D. Hardin, 1919
T:Public Domain Courtesy of the Cyber Hymnal™
T:Public Domain Courtesy of the Cyber Hymnal™
C:B. E. Jackson
Z:Public Domain
Z:Courtesy of the Cyber Hymnal™
%%score ( 1 2 ) ( 3 4 )
L:1/8
Q:1/4=100
M:4/4
K:Bb
V:1 treble 
V:2 treble 
V:3 bass 
V:4 bass 
V:1
 [B,D][CE] | [DF]2 [EG]2 [DF]2 [DB][Ec] | [Fd]2 [Ge]2 [Fd]2 [FB][Fc] | [Fd]3 [Ec] [DB]2 [=Ed]2 | %4
w: 1.~Souls are|dy- ing now, lost in|sin and woe, And the|lab- ’rers still are|
w: 2.~While the|bonds of sin shall un-|brok- en be, And each|pit- fall far from|
w: 3.~With the|love of God in my|heart to- day, I will|give His mes- sage|
 [Fc]6 [B,D][CE] | [DF]2 [EG]2 [DF]2 [DB][Ec] | [Fd]2 [Ge]2 [Fd]2 [FB][Fc] | %7
w: few; In- to|all the world Je- sus|bids us go, There is|
w: view, And while|ach- ing hearts should be|glad and free, There is|
w: true; Point the|lost of earth to the|liv- ing way, There is|
 [Fd]3 [Ec] [DB]2 [Ec]2 | [DB]6 |:"^Refrain" FF | B4- [FB]F[EG][EG] |1 F6 Bc | %12
w: work for me to|do.||||
w: work for me to|do.|I must|bring the wan- d’rers in,|Sav- ior, strength-|
w: work for me to|do.||||
 d4- [Fd][FB][=Ec][Ed] | c6 :|2 Bc || d4- [Fd][FB][Fc][Ec] | B6 |] %17
w: |||||
w: en me a- new, There||is work|for me to do. *||
w: |||||
V:2
 x2 | x8 | x8 | x8 | x8 | x8 | x8 | x8 | x6 |: x2 | (F2 F2 F) x3 |1 (DDDD D2) x2 | F2 G2 x4 | %13
 (FFFF F2) :|2 x2 || F2 G2 x4 | (DED^C D2) |] %17
V:3
 [B,,F,][B,,F,] | [B,,B,]2 [B,,B,]2 [B,,B,]2 [B,,F,][B,,F,] | %2
w: ~ ~|~ ~ ~ ~ ~|
 [B,,B,]2 [B,,B,]2 [B,,B,]2 [D,B,][F,A,] | B,3 [F,A,] [G,B,]2 [C,B,]2 | [F,A,]6 [B,,F,][B,,F,] | %5
w: ~ ~ ~ ~ ~|~ ~ ~ ~|~ ~ ~|
 [B,,B,]2 [B,,B,]2 [B,,B,]2 [B,,F,][B,,F,] | [B,,B,]2 [B,,B,]2 [B,,B,]2 [D,B,][F,A,] | %7
w: ~ ~ ~ ~ ~|~ ~ ~ ~ ~|
 B,3 [E,G,] F,2 F,2 | [B,,F,]6 |: z2 | [B,,D]2 [B,,D]2 [B,,D][D,B,][E,B,][E,B,] |1 %11
w: ~ ~ ~ ~|~||I must bring ~ ~ ~|
 [B,,B,][B,,B,][D,B,][F,B,] [B,,B,]2 z2 | [B,,B,]2 [B,,B,]2 [B,,B,][D,B,][C,G,][C,B,] | %13
w: ~ the wan- d’rers in,|Sav- ior, strength- en me, yes,|
 [F,A,][F,A,][F,A,][F,A,] [F,A,]2 :|2 z2 || B,2 [G,B,]2 [D,B,][D,B,][F,A,][F,A,] | B,G,F,=E, F,2 |] %17
w: strength- en me a- new||There is work ~ ~ ~|~ for me to do.|
V:4
 x2 | x8 | x8 | B,3 x5 | x8 | x8 | x8 | B,3 F,2 F,2 x | x6 |: x2 | x8 |1 x8 | x8 | x6 :|2 x2 || %15
 B,2 x6 | B,,6 |] %17

